packages/ui-solid/icons/stats_24.svg

<svg width="24" height="24" viewBox="0 0 24 24" fill="none" xmlns="http://www.w3.org/2000/svg">
<path fill-rule="evenodd" clip-rule="evenodd" d="M11.101 3.90741C7.04202 4.34894 3.90052 7.74196 3.90052 11.8408C3.90052 16.2379 7.51595 19.8227 12.001 19.8227C16.1758 19.8227 19.5971 16.7167 20.0505 12.7408H13.9875C13.9706 12.7408 13.9537 12.7408 13.9369 12.7408C13.5126 12.7408 13.109 12.7409 12.7777 12.6964C12.4075 12.6466 11.9961 12.5268 11.6555 12.1862C11.315 11.8457 11.1952 11.4343 11.1454 11.064C11.1009 10.7328 11.1009 10.3292 11.101 9.90491C11.101 9.88805 11.101 9.87115 11.101 9.85423V3.90741ZM12.901 3.90741V9.85423C12.901 10.3479 12.9029 10.6276 12.9294 10.8242C12.9336 10.856 12.938 10.8808 12.942 10.8998C12.9609 10.9038 12.9857 10.9081 13.0176 10.9124C13.2142 10.9388 13.4939 10.9408 13.9875 10.9408H20.0505C19.6302 7.25459 16.6588 4.31618 12.901 3.90741ZM12.8889 10.885C12.889 10.8849 12.8905 10.8855 12.8931 10.8868C12.8901 10.8857 12.8888 10.885 12.8889 10.885ZM12.955 10.9487C12.9563 10.9513 12.9568 10.9528 12.9568 10.9529C12.9568 10.953 12.9561 10.9517 12.955 10.9487ZM2.10052 11.8408C2.10052 6.42711 6.54441 2.05878 12.001 2.05878C17.4576 2.05878 21.9015 6.42711 21.9015 11.8408C21.9015 17.2544 17.4576 21.6227 12.001 21.6227C6.54441 21.6227 2.10052 17.2544 2.10052 11.8408Z" fill="#007AFF"/>
</svg>

<svg xmlns="http://www.w3.org/2000/svg" width="24" height="24" fill="none"><path fill="currentColor" fill-rule="evenodd" d="M11.101 3.907c-4.059.442-7.2 3.835-7.2 7.934 0 4.397 3.615 7.982 8.1 7.982 4.175 0 7.596-3.106 8.05-7.082h-6.114c-.424 0-.828 0-1.16-.045-.37-.05-.78-.17-1.121-.51s-.46-.752-.51-1.122c-.045-.331-.045-.735-.045-1.16zm1.8 0v5.947c0 .494.002.774.028.97l.013.076q.028.006.076.012c.196.027.476.029.97.029h6.063c-.42-3.686-3.392-6.625-7.15-7.034m-.012 6.978.004.002zm.066.064.002.004zm-10.854.892c0-5.414 4.443-9.782 9.9-9.782s9.9 4.368 9.9 9.782-4.443 9.782-9.9 9.782-9.9-4.369-9.9-9.782" clip-rule="evenodd"/></svg>
